src/assets/icons/lips.svg

<svg width="93" height="111" viewBox="0 0 93 111" fill="none" xmlns="http://www.w3.org/2000/svg">
<path d="M18.8887 30.5507C20.1952 29.694 21.4248 28.8709 22.594 28.0869C31.2562 22.2746 36.9321 18.4557 48.5201 18.6125C59.7841 18.7861 65.5369 23.5457 71.1031 28.1485C72.0198 28.9045 72.9366 29.666 73.8697 30.3996C79.9519 35.1648 86.3854 36.6711 93.0055 34.8568C84.0414 11.0307 66.9367 0.257143 60.3825 0.0163618C54.8108 -0.190822 49.9418 2.88333 46.4945 3.07932C43.0472 3.2753 39.5999 0.150751 34.1436 0.0107622C28.6872 -0.129227 18.7295 6.20387 12.3125 13.2369C6.62012 19.4804 1.15276 32.1802 0 34.952C0.0823397 34.98 8.34925 37.4718 18.8887 30.5507ZM14.7827 14.872C18.5594 10.23 31.8545 -1.48992 43.0253 5.35834C43.3876 5.58232 43.5083 6.06388 43.2887 6.43905C43.0747 6.80862 42.5971 6.93181 42.2293 6.70783C31.9862 0.425129 19.5255 11.5011 15.9684 15.8743C15.8147 16.0647 15.5951 16.1599 15.3756 16.1599C15.1999 16.1599 15.0297 16.0983 14.8815 15.9807C14.5522 15.7007 14.5083 15.208 14.7827 14.872Z" fill="black"/>
<path d="M58.2746 42.3942C58.0386 42.467 57.8135 42.5398 57.5775 42.6126C57.5775 42.6126 55.5025 43.3742 54.5035 43.5477C52.9555 43.9901 51.4514 44.3597 50.0022 44.5613C48.6024 44.7573 47.2466 44.8748 45.8303 44.8748C43.2284 44.8748 40.3904 44.4717 36.6302 43.391C36.0429 43.307 34.8462 42.8478 34.8462 42.8478C33.0732 42.2822 31.1135 41.5879 28.8848 40.7256C19.4322 37.0691 2.26163 37.4834 0.0439453 37.5506C6.54879 56.3987 19.3005 63.5606 26.1017 65.582C29.4557 66.5787 34.6212 67.9562 41.3291 68.4602C39.1004 57.709 30.4602 53.8285 30.3559 53.7837C29.9662 53.6158 29.7796 53.151 29.9497 52.7534C30.1144 52.3559 30.57 52.1711 30.9598 52.3391C31.0202 52.3671 34.0118 53.7109 37.0419 56.9251C38.9797 58.6834 40.8405 60.8952 41.7079 63.4318C43.9091 69.8769 43.6236 72.4135 43.6236 79.3513C43.6236 92.6559 42.7947 96.9731 42.0537 100.753C40.8954 106.666 41.7902 110.983 44.5843 110.994C48.2072 111.006 47.263 105.137 47.0709 102.203C46.8788 99.2745 45.2649 97.0235 45.468 87.0675C45.5943 81.0144 45.468 75.2524 45.468 71.7359C45.468 70.2184 45.8029 67.6258 46.6153 65.1676C46.6208 65.1396 46.6318 65.1172 46.6373 65.0892C46.6428 65.078 46.6428 65.0725 46.6482 65.0613C47.1587 63.359 47.8998 61.7519 48.9812 60.632C49.2776 60.324 49.596 60.0776 49.9199 59.8593C50.6994 59.2825 51.5886 58.9409 52.6151 58.9409C53.433 58.9409 54.1741 59.1425 54.8603 59.4673C55.7989 59.8425 56.6443 60.4584 57.3744 61.3319C58.3954 62.5414 59.1035 64.1429 59.5756 65.8228C60.1684 67.5923 60.4594 69.3617 60.4594 70.6552C60.4594 74.4629 60.4594 81.7927 60.4594 81.7927C60.4594 81.7927 60.2123 85.4044 59.3176 88.9994C58.4777 92.3759 58.8235 96.5532 60.9918 96.5476C62.5124 96.542 63.3577 94.4309 62.6716 90.472C61.9195 86.11 61.7329 85.2589 61.7329 81.6975C61.7329 78.1418 61.7329 71.7527 61.7329 71.7527C61.7329 71.7527 61.656 70.1456 61.914 67.973C61.925 67.8666 61.9415 67.7658 61.9525 67.6594C61.9854 67.3347 62.0403 67.0211 62.0952 66.7019C62.1336 66.4779 62.172 66.254 62.2214 66.03C62.6222 64.0253 63.3303 61.8303 64.5928 60.0328C64.7191 59.8537 64.8398 59.6857 64.9661 59.5177C67.0411 56.1356 69.4234 53.8341 69.6101 53.655C69.9229 53.3582 70.406 53.375 70.6969 53.6941C70.9879 54.0133 70.9714 54.5061 70.6585 54.8029C70.5872 54.8701 65.01 60.2456 63.6871 66.5619C64.9496 66.2652 66.2341 65.9404 67.5461 65.5652C85.4358 60.436 91.7979 41.5879 92.9836 37.4946C91.2764 37.6066 81.0004 38.301 72.3986 39.1017C66.9642 39.6225 62.3477 41.0951 58.2746 42.3942Z" fill="black"/>
<path d="M45.9345 40.8154H34.8516V41.2074C39.6492 42.7697 42.9483 43.3128 45.9345 43.3016V40.8154Z" fill="black"/>
<path d="M49.7985 43.0102C52.1974 42.6799 54.8103 41.8567 57.5824 40.972V40.8208H47.4766V43.251C48.2506 43.195 49.0191 43.1166 49.7985 43.0102Z" fill="black"/>
<path d="M52.6204 60.6152C51.6433 60.6152 50.8089 60.9848 50.0788 61.7407C48.5638 63.3086 47.8118 66.1532 47.4385 68.645C50.8144 68.5946 54.4868 68.2978 58.4446 67.6371C58.0493 65.6716 57.3522 63.7118 56.2159 62.3623C55.2278 61.1864 54.0531 60.6152 52.6204 60.6152Z" fill="black"/>
<path d="M62.7975 27.0682C63.0994 27.5049 63.6209 27.8745 64.587 27.8745C65.9538 27.8745 67.2054 27.9081 68.1331 27.7289C67.7269 27.3985 67.3152 27.0738 66.898 26.7546C66.8706 26.7322 66.8431 26.7154 66.8157 26.693C66.0691 26.1218 65.3006 25.5675 64.5102 25.0411C64.3235 24.9179 64.1369 24.7948 63.9502 24.6716C63.5715 24.4252 63.1872 24.1844 62.792 23.9492V27.0682H62.7975Z" fill="black"/>
<path d="M32.4805 23.7644V28.0425C33.1502 29.1624 34.8958 30.8087 39.4135 30.8087C44.1178 30.8087 45.7042 29.8176 46.2312 28.5857V20.2031C40.6156 20.3935 36.5316 21.6534 32.4805 23.7644Z" fill="black"/>
<path d="M48.4922 20.1808C48.2451 20.1752 48.0146 20.1864 47.7676 20.1864V28.9777C48.4922 29.9912 50.2158 30.7415 54.3218 30.7415C58.8395 30.7415 60.5851 29.0953 61.2548 27.9753V23.1093C57.8844 21.4015 53.8717 20.2592 48.4922 20.1808Z" fill="black"/>
<path d="M25.8877 27.7626C26.7989 27.9026 27.9681 27.8746 29.2472 27.8746C30.1035 27.8746 30.6195 27.5779 30.9324 27.2083V24.6045C29.313 25.5284 27.6607 26.5867 25.8877 27.7626Z" fill="black"/>
</svg>

<svg xmlns="http://www.w3.org/2000/svg" width="93" height="111" fill="none"><path fill="#000" d="m18.89 30.55 3.7-2.46c8.67-5.82 14.34-9.63 25.93-9.48 11.26.18 17.02 4.94 22.58 9.54.92.75 1.84 1.52 2.77 2.25 6.08 4.76 12.52 6.27 19.14 4.46C84.04 11.03 66.94.26 60.38.02 54.81-.2 49.94 2.88 46.5 3.08 43.05 3.28 39.6.15 34.14 0c-5.45-.14-15.41 6.2-21.83 13.23C6.62 19.48 1.15 32.18 0 34.95c.08.03 8.35 2.52 18.89-4.4Zm-4.1-15.68c3.77-4.64 17.06-16.36 28.24-9.51.36.22.48.7.26 1.08-.22.37-.7.5-1.06.27-10.24-6.28-22.7 4.8-26.26 9.16a.76.76 0 0 1-1.09.11.8.8 0 0 1-.1-1.1ZM58.27 42.4l-.7.21s-2.07.76-3.07.94a29.7 29.7 0 0 1-8.67 1.33c-2.6 0-5.44-.4-9.2-1.49-.59-.08-1.78-.54-1.78-.54-1.78-.57-3.74-1.26-5.97-2.12-9.45-3.66-26.62-3.25-28.84-3.18C6.54 56.4 19.3 63.56 26.1 65.58a70.8 70.8 0 0 0 15.23 2.88 21.12 21.12 0 0 0-10.97-14.68.79.79 0 0 1-.41-1.03.77.77 0 0 1 1.01-.41c.06.03 3.05 1.37 6.08 4.59 1.94 1.75 3.8 3.97 4.67 6.5 2.2 6.45 1.91 8.98 1.91 15.92 0 13.3-.83 17.62-1.57 21.4-1.15 5.92-.26 10.23 2.53 10.24 3.63.02 2.68-5.85 2.5-8.79-.2-2.93-1.82-5.18-1.61-15.13.12-6.06 0-11.82 0-15.33a23 23 0 0 1 1.15-6.57l.02-.08v-.03c.52-1.7 1.26-3.3 2.34-4.43.3-.3.62-.55.94-.77a4.44 4.44 0 0 1 2.7-.92c.81 0 1.55.2 2.24.53.94.37 1.78.99 2.51 1.86a12.04 12.04 0 0 1 2.2 4.5c.6 1.76.89 3.53.89 4.83v11.13s-.25 3.61-1.14 7.2c-.84 3.39-.5 7.56 1.67 7.56 1.52 0 2.37-2.12 1.68-6.08-.75-4.36-.94-5.21-.94-8.77v-9.95s-.07-1.6.18-3.78l.04-.31c.04-.33.09-.64.15-.96a15.96 15.96 0 0 1 2.87-7.18 31.78 31.78 0 0 1 4.64-5.87c.31-.3.8-.27 1.09.04a.8.8 0 0 1-.04 1.11c-.07.07-5.65 5.45-6.97 11.76 1.26-.3 2.54-.62 3.86-1C85.44 60.45 91.8 41.6 92.98 37.5c-1.7.12-11.98.81-20.58 1.61-5.44.52-10.05 2-14.13 3.3Z"/><path fill="#000" d="M45.93 40.82H34.85v.39c4.8 1.56 8.1 2.1 11.08 2.1v-2.5ZM49.8 43.01c2.4-.33 5.01-1.15 7.78-2.04v-.15h-10.1v2.43c.77-.05 1.54-.13 2.32-.24ZM52.62 60.62a3.4 3.4 0 0 0-2.54 1.12c-1.52 1.57-2.27 4.41-2.64 6.9 3.37-.05 7.05-.34 11-1-.4-1.97-1.09-3.93-2.22-5.28a4.49 4.49 0 0 0-3.6-1.74ZM62.8 27.07c.3.43.82.8 1.79.8 1.36 0 2.62.04 3.54-.14-.4-.33-.81-.66-1.23-.98-.03-.02-.06-.03-.08-.06a43.31 43.31 0 0 0-2.31-1.65l-.56-.37c-.38-.24-.76-.49-1.16-.72v3.12ZM32.48 23.76v4.28c.67 1.12 2.42 2.77 6.93 2.77 4.7 0 6.3-1 6.82-2.22V20.2a30.2 30.2 0 0 0-13.75 3.56ZM48.5 20.18h-.73v8.8c.72 1.01 2.45 1.76 6.55 1.76 4.52 0 6.27-1.64 6.93-2.76V23.1c-3.37-1.7-7.38-2.85-12.76-2.93ZM25.89 27.76c.9.14 2.08.11 3.36.11.85 0 1.37-.3 1.68-.66v-2.6a89.31 89.31 0 0 0-5.04 3.15Z"/></svg>
